X:55
T:Junior Crehan's (Port An Lurga Donn?)
C:Junior Crehan
R:Jig
S:Tony Smith, Cavan (fiddle)
Z:Bernie Stocks
N:As played
M:6/8
K:D
d |: BAF AFE | D2F EDB, | A,B,D {G}EDE | FEE E2d |
{d}BAF AFE | (3.D.E.FD EDB, | A,B,D {G}EDE |1 FDD D2d :|2 FDD D2E ||
|: DFA ~d3 | ede {a}fdB | def edB | ABd e2f |
edB {d}BAF | (3.D.E.FD EDB, | A,B,D {G}EDE |1 FDD D2E :|2 FDD D3 ||
<end>
<start>
